!!!!SEGMENT: pl-wnifc--6670-n--001-005_gall-jan-karol--piesni-polskie-na-chor-meski-z-i-5-jezu-chryste-panie-mily.krn
!!!cenid: 19xx:173
!!!COM: Gall, Jan Karol
!!!COM-rismID: pe50042628
!!!CDT: 1856-1912
!!!CNT: Polish
!!!GTL: Pieśni polskie na chór męski (z. I)
!!!OTL: 5. Jezu Chryste Panie miły
!!!OMV: 005
!!!PDT:
!!!AGN:
!!!YEC: Copyright 2022 Narodowy Instytut Fryderyka Chopina (https://polishscores.org)
!!!YEM: License CC-BY-4.0 (https://creativecommons.org/licenses/by/4.0)
!!!SMS-siglum: PL-Wnifc
!!!SMS-shelfmark: 6670/n
!!!SMS-variant:
!!!SMS-altvar:
!!!SMS-shelfwork: 001-005 G
!!!NIFC-rismSourceID: 1001152877
!!!NIFC-rismChildID: 1001152886
!!!NIFC-islandoraID: nifc:213182
!!!URL-pdf-islandora: https://repozytorium.nifc.pl/islandora/object/nifc:213182/datastream/PDF/view
!!!URL-scan: https://polish.musicsources.pl/pl/lokalizacje/galeria/druki-muzyczne/16895/4 @EN{Scan on Polish Music Sources Website} @PL{Skany w portalu Dziedzictwo Muzyki Polskiej w otwartym dostępie}
!!!IIIF:
!!!ONB-nifc:
!!!AIN: 1 bass 1 tenor
!!!key: c
**kern	**dynam	**kern	**text	**text	**dynam
*part2	*part2	*part1	*part1	*part1	*part1
*staff2	*	*staff1	*staff1	*staff1	*
*ICvox	*	*ICvox	*	*	*
*Ibass	*	*Itenor	*	*	*
*I"Basy.	*	*I"Tenory.	*	*	*
*I'B	*	*I'T	*	*	*
*clefF4	*	*clefGv2	*	*	*
*k[b-e-a-]	*	*k[b-e-a-]	*	*	*
*c:	*	*c:	*	*	*
*M4/4	*	*M4/4	*	*	*
*met(c)	*	*met(c)	*	*	*
=1	=1	=1	=1	=1	=1
!!!OMD: Lento.
*^	*	*^	*	*	*
4E-/	4C\	.	4c/	4G\	1. Je-	2.Płacz	.
4F/	4FF\	.	4d/	4A-\	-zu	czło-	.
4D/	4GG\	.	4c/	4G\	Chry-	-wie-	.
4D/	8GG\L	.	4Bn/	4G\	-ste	-cze-	.
.	8FF\J	.	.	.	.	.	.
=2	=2	=2	=2	=2	=2	=2	=2
!	!	!	!	!	!	!	!LO:DY:a
4C/	4EE-\	<	4c/	4G\	Pa-	-go	<
4C/	4FF\	[	4d/	4A-\	-nie	mi-	[
8C/L	4GG\	.	4e-/	8G\L	mi-	-zer-	.
8AAn/J	.	.	.	8F#X\J	.	.	.
!	!	!	!	!	!	!	!LO:DY:a
4BBn;/	4GG;\	>]	4d;/	4G;\	-ły	-ny	>]
!!LO:LB:g=original
=3	=3	=3	=3	=3	=3	=3	=3
4BBn/	4GG\	.	4d/	4G\	Ba-	Pa-	.
4C/	4C\	.	4e-/	4G\	-ran-	-trząc	.
4.C/	4.AA-X\	.	4f/	4.F\	-ku	jak	.
.	.	.	4c/	.	bar-	jest	.
8C/	8BB-X\	.	.	8G\	.	.	.
=4	=4	=4	=4	=4	=4	=4	=4
4.C/	4AA-\	.	4.f/	4F\	-dzo	mi-	.
.	4GG\	.	.	4G\	.	.	.
8C/	.	.	8e-/	.	cier-	-ło-	.
8C/L	8FF\L	.	4d/	8A-\L	-pli-	-sier-	.
8BBn/J	8GG\J	.	.	8G\J	.	.	.
4C;/	4C;\	.	4c;/	4E-;\	-wy	-ny	.
=5	=5	=5	=5	=5	=5	=5	=5
!	!	!LO:DY:rj	!	!	!	!	!LO:DY:a:rj
2G/	2C\	sf	2e-/	2c\	Wznio-	Je-	sf
!	!	!	!	!	!	!	!LO:DY:a
2G/	(4G\	>	2d/	(4c\	-słeś,	-zus,	>
.	4F\)	]	.	4Bn\)	.	.	]
!!LO:LB:g=original
=6	=6	=6	=6	=6	=6	=6	=6
!	!	!LO:DY:rj	!	!	!	!	!LO:DY:a:rj
2G/	2E-\	sf	2g/	2c\	wznio-	Je-	sf
!	!	!	!	!	!	!	!LO:DY:a
2G/	2D\	>	2f/	(4c\	-słeś	-zus	>
.	.	]	.	4Bn\)	.	.	]
=7	=7	=7	=7	=7	=7	=7	=7
4G/	4C\	.	4e-/	4c\	na	na	.
4G/	4C\	.	4e-/	4c\	Krzyż	Krzy-	.
4.F/	4.AA-\	.	4.f/	4.c\	rę-	-żu	.
8G/	8C\	.	8e-/	8c\	-ce	u-	.
=8	=8	=8	=8	=8	=8	=8	=8
!	!	!	!	!	!	!	!LO:DY:a
(4A-/	(4F\	>	2d/	(4c\	Two-	-mie-	>
8G/L)	4G\)	]	.	4Bn\)	.	.	]
8F/J	.	.	.	.	.	.	.
2E-/	2C\	.	2c/	2c\	je	-ra	.
!!LO:LB:g=original
=9	=9	=9	=9	=9	=9	=9	=9
!	!	!LO:DY:rj	!	!	!	!	!LO:DY:a:rj
2G/	2C\	sf	2e-/	2c\	Za	Słoń-	sf
!	!	!	!	!	!	!	!LO:DY:a
2G/	(4G\	>	2d/	(4c\	złość,	-ce,	>
.	4F\)	]	.	4Bn\)	.	.	]
=10	=10	=10	=10	=10	=10	=10	=10
!	!	!LO:DY:rj	!	!	!	!	!LO:DY:a:rj
2G/	2E-\	sf	2g/	2c\	za	słoń-	sf
!	!	!	!	!	!	!	!LO:DY:a
2G/	2D\	>	2f/	(4c\	nie-	-ce	>
.	.	]	.	4Bn\)	.	.	]
=11	=11	=11	=11	=11	=11	=11	=11
4G/	4C\	.	4e-/	4c\	-spra-	ja-	.
4G/	4C\	.	4e-/	4c\	-wie-	-sność	.
4.F/	4.AA-\	.	4.f/	4.c\	-dli-	swą	.
8G/	8C\	.	8e-/	8c\	-wość	za-	.
=12	=12	=12	=12	=12	=12	=12	=12
!	!	!	!	!	!	!	!LO:DY:a
(4A-/	(4FF\	>	2d/	(4c\	mo-	-wie-	>
8G/L)	4GG\)	]	.	4Bn\)	.	.	]
8F/J	.	.	.	.	.	.	.
2E-/	2C\	.	2c/	2c\	-ję.	-ra.	.
*v	*v	*	*	*	*	*	*
*	*	*v	*v	*	*	*
==	==	==	==	==	==
*-	*-	*-	*-	*-	*-
!!!system-decoration: [(s1,s2)]
!!!ENC: Filip Voros
!!!END: 2024-05-02
!!!EED: Andrzej Borzym
!!!EEV: 2025-03-06
